X: 62
T: Tiao kucai
L: 1/8
M: 2/4
K: G
d2A A [I:setbarnb 1]| 
d2e d | 
d A A d | 
A3G | 
GG2A | 
d e d A | 
G G/ B/ A E | 
D4 | 
d EG2 | 
zA2d | 
d A A G | 
A E E D | 
GG2A | 
d e d A | 
G G/ B/ A E | 
D4 | 
B B/ A/ G B | 
A E E D | 
GG2A | 
d> e d A | 
G G/ B/ A E | 
D4 |]

@@@ Tune index: 8936
